X: 3284
T: Engelsk Tretur
B:[[Notböcker/Melodier til gamle danske Almuedanse for Violin solo]]
O:Danmark
Z:Søren Bak Vestergaard
M: 3/4
L: 1/8
K: D
A,2|DEFGAB|A2 F2 A2|d2 e2 f2|g4 f2|gfedcd|\
efedcB|A2 G2 A,2|D2 z2:| |:!upbow!A2|(A2 g2) .f2|(A2 a2) .f2|gfedcd|\
efedcB|(A2 g2) .f2|(A2 a2) .f2|gfed c2|d2 z2:| |:(!upbow!fe)|e2 d2 c2|\
{/d}c2 B2 c2|d2 [BG]2 [BG]2|[AF]2 z2 (!upbow!fe)|e2 d2 c2|{/d}c2 B2 c2|d2 z2 (fe)|d2 z2:|
(:musicend:)
(:music:)
